X:19051
T:Strike the Bell
T:Ring the Bell Watchman
T:Click Go The Shears
R:Reel
C:Henry Clay Work, 1865
O:USA
Z:Paul Hardy's Session Tunebook 2015 (see www.paulhardy.net). Creative Commons cc by-nc-sa licenced.
M:4/4
L:1/8
Q:1/4=130
K:G
"G" B2 B3/2A/2 G2 B3/2d/2|"C" g2 g3/2f/2 e4|"G" d2 d3/2e/2 d2 B3/2G/2|"D7" A2 A3/2B/2 A4|
"G" B2 B3/2A/2 G2 B3/2d/2|"C" g2 g3/2f/2 e4|"D7" a3/2g/2 fe dc BA|"G" G2 g3/2g/2 g4|
"D" a3/2a/2 a2 f a3|"G" .g2 .b2 g4|"C" e2 e3/2f/2 g2 e3/2e/2|"G" d2 g3/2B/2 "D7"A4|
"G" B2 B3/2A/2 G2 B3/2d/2|"C" g2 g3/2f/2 e4|"D7" a3/2g/2 fe dc BA|"G" G2 g3/2g/2 g4|]

